components/2.0/icon/icons/icon-x-22px.svg

<?xml version="1.0" encoding="UTF-8" standalone="no"?>
<svg width="22px" height="22px" viewBox="0 0 22 22" version="1.1" xmlns="http://www.w3.org/2000/svg" xmlns:xlink="http://www.w3.org/1999/xlink" xmlns:sketch="http://www.bohemiancoding.com/sketch/ns">
    <!-- Generator: Sketch 3.4.4 (17249) - http://www.bohemiancoding.com/sketch -->
    <title>icon-x-22px</title>
    <desc>Created with Sketch.</desc>
    <defs></defs>
    <g id="22px" stroke="none" stroke-width="1" fill="none" fill-rule="evenodd" sketch:type="MSPage">
        <g id="icon-x-22px" sketch:type="MSArtboardGroup" fill="#3D4752">
            <path d="M9.004,11 L4.413,15.591 C3.862,16.142 3.862,17.036 4.413,17.587 C4.964,18.138 5.858,18.138 6.409,17.587 L11,12.996 L15.591,17.587 C16.142,18.138 17.036,18.138 17.587,17.587 C18.138,17.036 18.138,16.142 17.587,15.591 L12.996,11 L17.587,6.409 C18.138,5.858 18.138,4.965 17.587,4.413 C17.036,3.862 16.142,3.862 15.591,4.413 L11,9.004 L6.409,4.413 C5.858,3.862 4.964,3.862 4.413,4.413 C3.862,4.965 3.862,5.858 4.413,6.409 L9.004,11 Z" id="Fill-9" sketch:type="MSShapeGroup"></path>
        </g>
    </g>
</svg>

<svg width="22" height="22" xmlns="http://www.w3.org/2000/svg"><path d="M9 11l-4.6 4.6c-.5.5-.5 1.4 0 2 .6.5 1.5.5 2 0L11 13l4.6 4.6c.5.5 1.4.5 2 0 .5-.6.5-1.5 0-2L13 11l4.6-4.6c.5-.5.5-1.4 0-2-.6-.5-1.5-.5-2 0L11 9 6.4 4.4C6 4 5 4 4.4 4.4 4 5 4 6 4.4 6.4L9 11z" fill="#3D4752" fill-rule="evenodd"/></svg>
